!!!!SEGMENT: pl-kk--kk-i-7--109_gorczycki-grzegorz-gerwazy--ave-mundi-spes-maria.krn
!!!cenid: 16xx:948
!!!COM: Gorczycki, Grzegorz Gerwazy
!!!COM-rism: pe30009207
!!!CDT: ~1666-1734/04/30
!!!CNT: Polish
!!!OTL: Ave mundi spes Maria
!!!PDT:
!!!AGN: Sacred
!!!SMS-siglum: PL-Kk
!!!SMS-shelfmark: Kk.I.7
!!!NIFC-rismID: 300258186
!!!URL-scan: http://repozytorium.nifc.pl/skany/pl-kk-nut--i-7
!!!ONB-nifc: UWAGA: C (skan 0081, s.55 ), A (0159, s.55), T (0246, s.55), B (0333, s.55). Następny utwór: Omnium sanctorum
!!!SMS-variant:
!!!SMS-altvar:
**kern	**text	**text	**text	**text	**text	**kern	**text	**text	**text	**text	**text	**kern	**text	**text	**text	**text	**text	**kern	**text	**text	**text	**text	**text
*part4	*part4	*part4	*part4	*part4	*part4	*part3	*part3	*part3	*part3	*part3	*part3	*part2	*part2	*part2	*part2	*part2	*part2	*part1	*part1	*part1	*part1	*part1	*part1
*staff4	*staff4	*staff4	*staff4	*staff4	*staff4	*staff3	*staff3	*staff3	*staff3	*staff3	*staff3	*staff2	*staff2	*staff2	*staff2	*staff2	*staff2	*staff1	*staff1	*staff1	*staff1	*staff1	*staff1
*	*verse 1	*verse 2	*verse 3	*verse 4	*verse 5	*	*verse 1	*verse 2	*verse 3	*verse 4	*verse 5	*	*verse 1	*verse 2	*verse 3	*verse 4	*verse 5	*	*verse 1	*verse 2	*verse 3	*verse 4	*verse 5
*I"BASSVS.	*	*	*	*	*	*I"TENOR.	*	*	*	*	*	*I"ALTVS.	*	*	*	*	*	*I"CANTVS.	*	*	*	*	*
*I'B	*	*	*	*	*	*I'T	*	*	*	*	*	*I'A	*	*	*	*	*	*I'S	*	*	*	*	*
*clefF4	*	*	*	*	*	*clefC4	*	*	*	*	*	*clefC3	*	*	*	*	*	*clefC1	*	*	*	*	*
*k[b-]	*	*	*	*	*	*k[b-]	*	*	*	*	*	*k[b-]	*	*	*	*	*	*k[b-]	*	*	*	*	*
*M3/2	*	*	*	*	*	*M3/2	*	*	*	*	*	*M3/2	*	*	*	*	*	*M3/2	*	*	*	*	*
=1	=1	=1	=1	=1	=1	=1	=1	=1	=1	=1	=1	=1	=1	=1	=1	=1	=1	=1	=1	=1	=1	=1	=1
!LO:TX:t=P:problem:bemole:BB-, B- (jeden nad drugim)	!	!	!	!	!	!	!	!	!	!	!	!	!	!	!	!	!	!	!	!	!	!	!
!LO:TX:a:t=De B. V. Maria	!	!	!	!	!	!LO:TX:a:t=De B. V. Maria	!	!	!	!	!	!LO:TX:a:t=De B. V. Maria	!	!	!	!	!	!LO:TX:a:t=De B. V. Maria	!	!	!	!	!
!LO:N:vis=00	!	!	!	!	!	!	!	!	!	!	!	!	!	!	!	!	!	!	!	!	!	!	!
00.r	.	.	.	.	.	2rF	.	.	.	.	.	2r	.	.	.	.	.	2r	.	.	.	.	.
*	*	*	*	*	*	*	*	*	*	*	*	*2\right	*	*	*	*	*	*2\right	*	*	*	*	*
.	.	.	.	.	.	2F/	A-	Sanc-	An-	Me	E-	2f\	A-	Sanc-	An-	Me	E-	2a\	A-	Sanc-	An-	Me	E-
*	*	*	*	*	*	*2\right	*	*	*	*	*	*	*	*	*	*	*	*	*	*	*	*	*
.	.	.	.	.	.	2c\	-ve	-ta	-ge-	ha-	-ja	2e\	-ve	-ta	-ge-	ha-	-ja	2g\	-ve	-ta	-ge-	ha-	-ja
=2	=2	=2	=2	=2	=2	=2	=2	=2	=2	=2	=2	=2	=2	=2	=2	=2	=2	=2	=2	=2	=2	=2	=2
.	.	.	.	.	.	2E/	mun-	Pa-	-lo-	-be-	Ro-	2g\	mun-	Pa-	-lo-	-be-	Ro-	2cc\	mun-	Pa-	-lo-	-be-	Ro-
.	.	.	.	.	.	1F	-di	-rens	-rum	-to	-sa	1f	-di	-rens	-rum	-to	-sa	1a	-di	-rens	-rum	-to	-sa
=3	=3	=3	=3	=3	=3	=3	=3	=3	=3	=3	=3	=3	=3	=3	=3	=3	=3	=3	=3	=3	=3	=3	=3
.	.	.	.	.	.	2r	.	.	.	.	.	2r	.	.	.	.	.	2r	.	.	.	.	.
.	.	.	.	.	.	2A\	spes	Je-	Im-	ex-	si-	(4f\	spes	Je-	Im-	ex-	si-	(4a\	spes	Je-	Im-	ex-	si-
.	.	.	.	.	.	.	.	.	.	.	.	4a\)	.	.	.	.	.	4cc\)	.	.	.	.	.
.	.	.	.	.	.	2B-\	Ma-	-su	-pe-	-cu-	-ne	(4g\	Ma-	-su	-pe-	-cu-	-ne	(4b-\	Ma-	-su	-pe-	cu-	-ne
.	.	.	.	.	.	.	.	.	.	.	.	4f\)	.	.	.	.	.	4a\)	.	.	.	.	.
=4	=4	=4	=4	=4	=4	=4	=4	=4	=4	=4	=4	=4	=4	=4	=4	=4	=4	=4	=4	=4	=4	=4	=4
.	.	.	.	.	.	1c	-ri-	Chris-	-ra-	-sa-	spi-	(2f\	-ri-	Chris-	-ra-	sa-	spi-	(2a\	-ri-	Chris-	-ra-	-sa-	spi-
.	.	.	.	.	.	.	.	.	.	.	.	4e\)	.	.	.	.	.	4g/)	.	.	.	.	.
.	.	.	.	.	.	.	.	.	.	.	.	4d\	.	.	.	.	.	4f/	.	.	.	.	.
.	.	.	.	.	.	2C/	-a	-ti	-trix	-tum,	-na	2e\	-a,	-ti,	-trix	-tum,	-na	2g/	-a,	-ti,	-trix,	-tum,	-na,
=5	=5	=5	=5	=5	=5	=5	=5	=5	=5	=5	=5	=5	=5	=5	=5	=5	=5	=5	=5	=5	=5	=5	=5
2r	.	.	.	.	.	2r	.	.	.	.	.	2r	.	.	.	.	.	2r	.	.	.	.	.
2C/	A-	San-	An-	Me	E-	2G/	a-	San-	An-	Me	E-	2e\	a-	San-	An-	Me	E-	2cc\	a-	San-	An-	Me	E-
*2\right	*	*	*	*	*	*	*	*	*	*	*	*	*	*	*	*	*	*	*	*	*	*	*
!LO:SIC:l:v:s=ia:verse 5	!	!	!	!	!	!	!	!	!	!	!	!	!	!	!	!	!	!	!	!	!	!	!
2G\	-ve	-cta	-ge-	ha-	-ja	2G/	-ve	-cta	-ge-	ha-	-ja	2d\	-ve	-cta	-ge-	ha-	-ja	2bn\	-ve	-cta	-ge-	ha-	-ja
=6	=6	=6	=6	=6	=6	=6	=6	=6	=6	=6	=6	=6	=6	=6	=6	=6	=6	=6	=6	=6	=6	=6	=6
2BBn/	mun-	Pa-	-lo-	-be-	Ro-	2G/	mun-	Pa-	-lo-	-be-	Ro-	2g\	mun-	Pa-	-lo-	-be-	Ro-	2dd\	mun-	Pa-	-lo-	-be-	Ro-
1C	-di	-rens	-rum	-to	-sa	1G	-di	-rens	-rum	-to	-sa	1e	-di	-rens	-rum	-to	-sa	1cc	-di	-rens	-rum	-to	-sa
=7	=7	=7	=7	=7	=7	=7	=7	=7	=7	=7	=7	=7	=7	=7	=7	=7	=7	=7	=7	=7	=7	=7	=7
2r	.	.	.	.	.	2rF	.	.	.	.	.	2r	.	.	.	.	.	2r	.	.	.	.	.
2E\	spes	Je-	Im-	ex-	si-	2G/	spes	Je-	Im-	ex-	si-	(4e\	spes	Je-	Im-	ex-	si-	(4cc\	spes	Je-	Im-	ex-	si-
.	.	.	.	.	.	.	.	.	.	.	.	4g\)	.	.	.	.	.	4ee\)	.	.	.	.	.
2F\	Ma-	-su	-pe-	-cu-	-ne	2A/	Ma-	-su	-pe-	-cu-	-ne	(4f\	Ma-	-su	-pe-	-cu-	-ne	(4dd\	Ma-	-su	-pe-	-cu-	ne
.	.	.	.	.	.	.	.	.	.	.	.	4e\)	.	.	.	.	.	4cc\)	.	.	.	.	.
=8	=8	=8	=8	=8	=8	=8	=8	=8	=8	=8	=8	=8	=8	=8	=8	=8	=8	=8	=8	=8	=8	=8	=8
1G	-ri-	Chris-	-ra-	-sa-	spi-	1G	-ri-	Chri-	-ra-	-ſa-	spi-	(2e\	-ri-	Chri-	-ra-	-sa-	spi-	2cc\	ri-	Chri-	-ra-	-sa-	spi-
.	.	.	.	.	.	.	.	.	.	.	.	4d\)	.	.	.	.	.	4bn\	.	.	.	.	.
.	.	.	.	.	.	.	.	.	.	.	.	4c\	.	.	.	.	.	4a\	.	.	.	.	.
!	!	!	!	!	!	!	!	!	!	!	!	!LO:SIC:v:custos d	!	!	!	!	!	!LO:SIC:v:custos bn	!	!	!	!	!
2GG/	-a:	-ti,	-trix	-tum	-na	2G/	-a	-ſti	-trix	-tum,	-na	2d\	-a,	-sti,	-trix	tum	-na	2b\	-a	-sti,	-trix,	-tum	na,
!	!	!	!	!	!	!	!	!	!	!	!	!LO:LB:g=original	!	!	!	!	!	!LO:LB:g=original	!	!	!	!	!
=9	=9	=9	=9	=9	=9	=9	=9	=9	=9	=9	=9	=9	=9	=9	=9	=9	=9	=9	=9	=9	=9	=9	=9
2r	.	.	.	.	.	2rF	.	.	.	.	.	2r	.	.	.	.	.	2r	.	.	.	.	.
2G\	a-	e-	Pec-	a-	pec-	2G/	a-	e-	Pec-	a-	pec-	2d\	a-	e-	Pec-	a-	pec-	2bn\	a-	e-	pec-	a-	pec-
2F\	-ve	-le-	-ca-	-pud	-ca-	2G/	-ve	-le-	-ca-	-pud	-ca-	2d\	-ve	-le-	-ca-	-pud	ca-	2b\	-ve	-le-	-ca-	-pud	-ca-
=10	=10	=10	=10	=10	=10	=10	=10	=10	=10	=10	=10	=10	=10	=10	=10	=10	=10	=10	=10	=10	=10	=10	=10
4E\	mi-	-cta	-to-	Chri-	-to-	4G/	mi-	-cta	-to-	Chri-	-to-	4e\	mi-	-cta	-to-	Chri-	-to-	4cc\	mi-	-cta	-to-	Chri-	-to-
4D\	.	.	.	.	.	4F/	.	.	.	.	.	4f\	.	.	.	.	.	4dd\	.	.	.	.	.
2E\	.	.	.	.	.	2G/	.	.	.	.	.	2e\	.	.	.	.	.	2cc\	.	.	.	.	.
!	!	!	!	!	!	!LO:SIC:v:custos A	!	!	!	!	!	!	!	!	!	!	!	!	!	!	!	!	!
2C/	-tis	so-	-rum	-stum	-rum	2G/	-tis	so-	-rum	-stum	-rum	2g\	-tis	so-	-rum	-stum	-rum	2ee\	-tis	so-	.	.	.
!	!	!	!	!	!	!LO:LB:g=original	!	!	!	!	!	!	!	!	!	!	!	!	!	!	!	!	!
=11	=11	=11	=11	=11	=11	=11	=11	=11	=11	=11	=11	=11	=11	=11	=11	=11	=11	=11	=11	=11	=11	=11	=11
4F\	a-	-la	Con-	Tu-	me-	4A\	a-	-la	Con-	Tu-	me-	1fT	a-	-la	Con-	Tu-	me-	1cc	a-	-la,	.	.	.
4E\	.	.	.	.	.	4G\	.	.	.	.	.	.	.	.	.	.	.	.	.	.	.	.	.
4F\	.	.	.	.	.	4A\	.	.	.	.	.	.	.	.	.	.	.	.	.	.	.	.	.
4G\	.	.	.	.	.	4B-\	.	.	.	.	.	.	.	.	.	.	.	.	.	.	.	.	.
4A\	.	so-	.	.	.	4c\	.	.	.	.	.	(4f\	.	so-	.	.	-di-	2cc\	-ve	so	-rum	-stum	rum
4E\	-ve	.	.	.	.	4G\	.	.	.	.	.	4g\)	.	.	.	.	.	.	.	.	.	.	.
=12	=12	=12	=12	=12	=12	=12	=12	=12	=12	=12	=12	=12	=12	=12	=12	=12	=12	=12	=12	=12	=12	=12	=12
2F\	a-	-la	-so-	.	.	2A/	-ve	.	.	.	.	2c\	-ve	.	.	-um	.	(2a\	a-	la	Con-	Tu-	me-
2D/	.	fu-	.	.	.	2F/	a-	fu-	-so-	.	.	2d\	a-	-la	-so-	Tu-	ci-	2bn\)	.	.	.	.	.
!LO:SIC:v:custos A	!	!	!	!	!	!	!	!	!	!	!	!	!	!	!	!	!	!	!	!	!	!	!
2C/	.	.	.	-um	-di-	2G/	.	.	.	-um	-di-	2e\	.	.	-la-	.	.	2cc\	-ve	fu-	so-	-um	.
!LO:LB:g=original	!	!	!	!	!	!	!	!	!	!	!	!	!	!	!	!	!	!	!	!	!	!	!
=13	=13	=13	=13	=13	=13	=13	=13	=13	=13	=13	=13	=13	=13	=13	=13	=13	=13	=13	=13	=13	=13	=13	=13
2A\	-ve	-i-	-la-	Na-	-ci-	2F/	-ve	-i-	-la-	na-	-ci-	4f\	-ve	fu-	.	.	.	1cc	pi-	-i-	-la-	Na-	di-
.	.	.	.	.	.	.	.	.	.	.	.	4e\	.	.	.	-um	.	.	.	.	.	.	.
2G\	pi-	.	.	.	.	1G	pi-	.	.	.	.	1d	pi-	-i-	.	Na-	.	.	.	.	.	.	.
2GG/	.	.	.	.	.	.	.	.	.	.	.	.	.	.	.	.	.	2bn\	.	.	.	.	ci
=14	=14	=14	=14	=14	=14	=14	=14	=14	=14	=14	=14	=14	=14	=14	=14	=14	=14	=14	=14	=14	=14	=14	=14
!	!	!	!	!	!	!LO:TX:a:t=P:problem:cezura na 2. linii	!	!	!	!	!	!LO:TX:a:t=P:problem:cezura na 4. linii	!	!	!	!	!	!LO:TX:t=P:problem:cezura na 4. linii	!	!	!	!	!
2C/	-a;	-sti	-trix,	-tum,	-na	2G,/	-a;	-sti;	-trix:	-tum:	-na:	2e,\	-a;	-sti	-trix;	-tum:	-na,	2cc,\	-a;	-sti	-trix;	-tum:	na;
2r	.	.	.	.	.	2c\	A-	Eſ-	Con-	Cu-	Pro	2e\	a-	eſ-	Con-	Cu-	Pro	2g/	A-	eſ-	Con-	Cu-	Pro
!	!	!	!	!	!	!LO:SIC:l:v:s=ius: verse 4	!	!	!	!	!	!LO:SIC:l:v:s=ius:verse 4	!	!	!	!	!	!	!	!	!	!	!
2r	.	.	.	.	.	2B-X\	-ve	-se	-so-	-jus	me	2e\	-ve	se	-so-	-jus	me	2g/	-ve	-se	-so-	-jus	me
=15	=15	=15	=15	=15	=15	=15	=15	=15	=15	=15	=15	=15	=15	=15	=15	=15	=15	=15	=15	=15	=15	=15	=15
!LO:N:vis=00	!	!	!	!	!	!	!	!	!	!	!	!	!	!	!	!	!	!	!	!	!	!	!
00.r	.	.	.	.	.	4A/	Cha-	Ma-	-la-	i-	DE-	4f\	Cha-	Ma-	-la-	i-	DE-	4a\	cha-	Ma-	-la-	i-	DE-
.	.	.	.	.	.	4G/	-ri-	.	.	.	.	4a\	-ri-	.	.	.	.	4b-X\	ri-	.	.	.	.
.	.	.	.	.	.	2A/	-ta-	-ter	.	.	.	2f\	-ta-	.	.	.	.	2a\	-ta-	.	.	.	.
.	.	.	.	.	.	2F/	-te	.	-re	-ram	-UM	2a\	-te	-ter	-re	-ram	-UM	2cc\	-te	-ter	.	.	.
=16	=16	=16	=16	=16	=16	=16	=16	=16	=16	=16	=16	=16	=16	=16	=16	=16	=16	=16	=16	=16	=16	=16	=16
.	.	.	.	.	.	(4B-\	ple-	si-	me-	per-	in-	4d\	ple-	si-	me	per-	in-	[1.f	ple-	si-	.	-ram	UM
.	.	.	.	.	.	4A\	.	.	.	.	.	4c\	.	.	.	.	.	.	.	.	.	.	.
.	.	.	.	.	.	4B-\	.	.	.	.	.	4d\	.	.	.	.	.	.	.	.	.	.	.
.	.	.	.	.	.	4c\)	.	.	.	.	.	4e\	.	.	.	.	.	.	.	.	.	.	.
.	.	.	.	.	.	4d\	.	.	.	.	.	(4f\	.	.	.	.	.	.	.	.	.	.	.
.	.	.	.	.	.	4A\	-na	-ne	.	.	-ter	4c\)	-na	-ne	.	.	.	.	.	.	.	.	.
=17	=17	=17	=17	=17	=17	=17	=17	=17	=17	=17	=17	=17	=17	=17	=17	=17	=17	=17	=17	=17	=17	=17	=17
.	.	.	.	.	.	2B-\	ple-	si-	.	.	.	2d\	ple-	si-	.	.	.	2f/]	.	.	.	.	.
.	.	.	.	.	.	2G/	.	.	.	.	pel-	2en\	.	.	lu-	-ti-	-ter	2b-X\	.	.	-re	per-	in-
.	.	.	.	.	.	2F/	.	.	-lu-	-ti-	.	2f\	.	.	.	-me-	.	2a\	.	-ne	me	-ti-	-ter
=18	=18	=18	=18	=18	=18	=18	=18	=18	=18	=18	=18	=18	=18	=18	=18	=18	=18	=18	=18	=18	=18	=18	=18
!	!	!	!	!	!	!LO:TX:a:t=P:problem:♭ above	!	!	!	!	!	!	!	!	!	!	!	!	!	!	!	!	!
.	.	.	.	.	.	2B-X\	.	-ne	-gen-	-me-	.	4g\	.	-ne	gen-	.	pel-	(4b-\	.	Vi-	lu-	-me-	pel-
.	.	.	.	.	.	.	.	.	.	.	.	4f\	.	.	.	.	.	4a\)	.	.	.	.	.
!	!	!	!	!	!	!	!	!	!	!	!	!	!	!	!	!	!	!LO:SIC:v:custos a	!	!	!	!	!
.	.	.	.	.	.	2c\	.	vi-	.	.	.	2f\	.	Vi-	.	.	.	1g	.	.	gen-	.	.
!	!	!	!	!	!	!	!	!	!	!	!	!LO:SIC:v:custos f	!	!	!	!	!	!	!	!	!	!	!
.	.	.	.	.	.	2C/	.	.	.	.	.	2e\	.	.	.	.	.	.	.	.	.	.	.
!	!	!	!	!	!	!	!	!	!	!	!	!LO:LB:g=original	!	!	!	!	!	!LO:LB:g=original	!	!	!	!	!
=19	=19	=19	=19	=19	=19	=19	=19	=19	=19	=19	=19	=19	=19	=19	=19	=19	=19	=19	=19	=19	=19	=19	=19
!	!	!	!	!	!	!LO:TX:a:t=P:problem:cezura na 2. linii	!	!	!	!	!	!LO:TX:t=P:problem:cezura na 4. linii	!	!	!	!	!	!LO:TX:t=P:problem:cezura na 3. linii	!	!	!	!	!
2r	.	.	.	.	.	2F,/	-na	-ro,	-tem	-sco	-la,	2f,\	-na,	ro	-tem,	-sco,	-la,	2a,\	-na	-ro,	-tem,	-sco,	la,
2F\	Vir-	et	in	et	ut	2c\	Vir-	et	in	et	ut	2f\	Vir-	et	in	et	ut	4a\	Vir-	et	in	et	ut
.	.	.	.	.	.	.	.	.	.	.	.	.	.	.	.	.	.	4bn\	.	.	.	.	.
2E\	-go	lac-	pec-	fu-	me	2en\	-go	lac-	pec-	fu-	me	2g\	-go	lac-	pec-	fu-	me	2cc#X\	-go	lac-	pec-	fu-	me
=20	=20	=20	=20	=20	=20	=20	=20	=20	=20	=20	=20	=20	=20	=20	=20	=20	=20	=20	=20	=20	=20	=20	=20
2D\	dul-	-ta-	-ca-	ro-	sal-	2f\	dul-	-ta-	-ca-	-ro-	sal-	2a\	dul-	-ta-	-ca-	-ro-	sal-	2dd\	dul-	-ta-	-ca-	-ro-	sal-
!	!	!	!	!	!	!	!	!	!	!	!	!	!	!	!	!	!	!LO:TX:t=P:problem:cezura na 3. linii	!	!	!	!	!
2E\	-cis	-re	-tis	-rem	-vet	2en\	-cis	-re	-tis	-rem	-vet	2g\	-cis	-re	-tis	-rem	-vet	2cc#X,\	-cis	-re	-tis	-rem	-vet
!LO:SIC:l:v:s=iam:verse 3	!	!	!	!	!	!LO:SIC:l:v:s=iam:verse 3	!	!	!	!	!	!LO:SIC:l:v:s=iam:verse 3	!	!	!	!	!	!LO:SIC:l:v:s=iam:verse 3	!	!	!	!	!
2F\	et	mo-	jam	ex-	à	4d\	et	mo-	jam	ex-	à	2f\	et	mo-	jam	ex-	à	2dd\	et	mo-	jam	ex-	à
!	!	!	!	!	!	!LO:SIC:v:custos B-	!	!	!	!	!	!	!	!	!	!	!	!	!	!	!	!	!
.	.	.	.	.	.	4c\	.	.	.	.	.	.	.	.	.	.	.	.	.	.	.	.	.
!	!	!	!	!	!	!LO:LB:g=original	!	!	!	!	!	!	!	!	!	!	!	!	!	!	!	!	!
=21	=21	=21	=21	=21	=21	=21	=21	=21	=21	=21	=21	=21	=21	=21	=21	=21	=21	=21	=21	=21	=21	=21	=21
2G\	se-	-do	fae-	-pa-	pro-	2B-\	se-	-do	fae-	-pa-	pro-	2e\	se-	-do	fae-	-pa-	pro-	2dd\	se-	-do	fae-	-pa-	pro-
2A\	-re-	mi-	-ten-	-ve-	-cel-	1A	-re	mi-	-ten-	-ve-	-cel-	1et	-re	mi-	-ten-	-ve-	-cel-	(2dd\	-re-	mi-	-ten-	-ve-	-cel-
2AA/	.	.	.	.	.	.	.	.	.	.	.	.	.	.	.	.	.	2cc#X\)	.	.	.	.	.
=22	=22	=22	=22	=22	=22	=22	=22	=22	=22	=22	=22	=22	=22	=22	=22	=22	=22	=22	=22	=22	=22	=22	=22
!	!	!	!	!	!	!	!	!	!	!	!	!LO:TX:t=P:problem:cezura na 3. linii	!	!	!	!	!	!LO:TX:t=P:problem:cezura na 5. linii	!	!	!	!	!
2D\	-na.	-ro	-tem,	-sco,	-la	2A\	na	-ro,	-tem	-sco,	-la	2d,\	na,	-ro,	-tem,	-sco,	-la	2dd,\	-na	-ro,	-tem,	-sco,	la,
!	!	!	!	!	!	!	!	!	!	!	!	!	!	!	!	!	!	!LO:SIC:l:v:s=iam	!	!	!	!	!
2r	.	.	.	.	.	2r	.	.	.	.	.	2c\	Vir-	et	in	et	ut	2a\	Vir-	et	in	et	ut
2r	.	.	.	.	.	2r	.	.	.	.	.	2d\	-go	lac-	pec-	fu-	me	2b-X\	-go	lac-	pec-	fu-	me
=23	=23	=23	=23	=23	=23	=23	=23	=23	=23	=23	=23	=23	=23	=23	=23	=23	=23	=23	=23	=23	=23	=23	=23
2r	.	.	.	.	.	2r	.	.	.	.	.	2c\	dul-	-ta-	-ca-	-ro-	sal-	2a\	dul-	-ta-	-ca-	-ro-	sal-
2F\	Vir-	et	in	et	ut	2c\	Vir-	et	in	et	ut	2A/	-cis	-re	-tis	-rem	-vet	2f/	-cis	-re	-tis	-rem	-vet
2B-\	-go	lac-	pec-	fu-	me	2d\	-go	lac-	pec-	fu-	me	2r	.	.	.	.	.	2r	.	.	.	.	.
=24	=24	=24	=24	=24	=24	=24	=24	=24	=24	=24	=24	=24	=24	=24	=24	=24	=24	=24	=24	=24	=24	=24	=24
2.A\	dul-	-ta-	-ca-	-ro-	sal-	2.c\	dul-	-ta-	-ca-	-ro-	sal-	2r	.	.	.	.	.	2r	.	.	.	.	.
.	.	.	.	.	.	.	.	.	.	.	.	2r	.	.	.	.	.	2r	.	.	.	.	.
4G\	-cis	-re	-tis	-rem	-vet	4B-\	-cis	-re	-tis	-rem	-vet	.	.	.	.	.	.	.	.	.	.	.	.
!LO:SIC:l:v:s=iam:verse 3	!	!	!	!	!	!	!	!	!	!	!	!	!	!	!	!	!	!LO:SIC:l:v:s=iam:verse 3	!	!	!	!	!
2F\	et	mo-	jam	ex-	à	2A\	et	mo-	jam	ex-	à	2f\	et	mo-	jam	ex-	à	2cc\	et	mo-	jam	ex-	à
=25	=25	=25	=25	=25	=25	=25	=25	=25	=25	=25	=25	=25	=25	=25	=25	=25	=25	=25	=25	=25	=25	=25	=25
2B-\	se-	-do	fae-	-pa-	pro-	2d\	se-	-do	fae-	-pa-	pro-	2f\	se-	-do	fae-	-pa-	pro-	4b-\	se-	-do	.	-pa-	pro-
.	.	.	.	.	.	.	.	.	.	.	.	.	.	.	.	.	.	4a\	.	.	.	.	.
2c\	-re-	mi-	-ten-	-ve-	-cel-	1c	-re-	mi-	-ten-	-ve-	-cel-	(2f\	-re-	mi-	-ten-	-ve-	-cel-	1g	-re-	mi-	fae-	-ve-	cel-
!LO:SIC:v:custos F	!	!	!	!	!	!	!	!	!	!	!	!	!	!	!	!	!	!	!	!	!	!	!
2C/	.	.	.	.	.	.	.	.	.	.	.	2e\)	.	.	.	.	.	.	.	.	.	.	.
!LO:LB:g=original	!	!	!	!	!	!	!	!	!	!	!	!	!	!	!	!	!	!	!	!	!	!	!
=26	=26	=26	=26	=26	=26	=26	=26	=26	=26	=26	=26	=26	=26	=26	=26	=26	=26	=26	=26	=26	=26	=26	=26
!	!	!	!	!	!	!LO:TX:a:t=P:problem:cezura na 4. linii	!	!	!	!	!	!LO:TX:t=P:problem:cezura na 5. linii	!	!	!	!	!	!	!	!	!	!	!
4F\	na	-ro	-tem	-sco,	-la,	2c,\	-na	-ro,	-tem	-sco,	-la,	2f,\	na	-ro,	-tem	sco,	-la,	(4a\	-na	-ro	-ten-	-sco,	-la
(4E\	.	.	.	.	.	.	.	.	.	.	.	.	.	.	.	.	.	4g\	.	.	.	.	.
4F\	.	.	.	.	.	2c\	Vir-	et	in	et	ut	2f\	Vir-	et	jam	et	ut	4a\	.	.	.	.	.
4G\	.	.	.	.	.	.	.	.	.	.	.	.	.	.	.	.	.	4b-\	.	.	.	.	.
4A\)	.	.	.	.	.	(4c\	-go	lac-	pec-	fu-	me	2f\	-go	lac-	fae-	fu-	me	4cc\)	.	.	.	.	.
4B-\	.	.	.	.	.	4d\)	.	.	.	.	.	.	.	.	.	.	.	4dd\	.	.	.	.	.
=27	=27	=27	=27	=27	=27	=27	=27	=27	=27	=27	=27	=27	=27	=27	=27	=27	=27	=27	=27	=27	=27	=27	=27
!LO:SIC:l:v:s=iam:verse 3	!	!	!	!	!	!	!	!	!	!	!	!	!	!	!	!	!	!	!	!	!	!	!
4c\	Vir-	mo-	jam	ex-	à	[<1.c	dul-	-ta-	-ca-	-ro-	sal-	4e\	dul-	-ta-	ten-	-ro-	sal-	1cc	Vir-	.	tem	ex-	.
4d\	.	.	.	.	.	.	.	.	.	.	.	4f\	.	.	.	.	.	.	.	.	.	.	.
4c\	.	.	.	.	.	.	.	.	.	.	.	4e\	.	.	.	.	.	.	.	.	.	.	.
4B-\	.	.	.	.	.	.	.	.	.	.	.	4d\	.	.	.	.	.	.	.	.	.	.	.
(4A\	-go	-do	.	.	.	.	.	.	.	.	.	4c\	.	.	.	.	.	(4cc\	-go	mo-	jam	.	sal-
4G\)	.	.	.	.	.	.	.	.	.	.	.	4e\	.	.	.	.	.	4b-\)	.	.	.	.	.
=28	=28	=28	=28	=28	=28	=28	=28	=28	=28	=28	=28	=28	=28	=28	=28	=28	=28	=28	=28	=28	=28	=28	=28
!	!	!	!	!	!	!	!	!	!	!	!	!	!	!	!	!	!	!LO:TX:t=P:problem:cezura na 2. linii	!	!	!	!	!
2F\	dul-	mo-	.	.	.	2c\]	.	.	.	.	.	2f\	.	.	.	.	.	2a,\	dul-	-do	.	.	vet
!	!	!	!	!	!	!	!	!	!	!	!	!LO:TX:t=P:problem:cezura na 3. linii	!	!	!	!	!	!	!	!	!	!	!
2G\	-cis	.	.	.	.	2B-\	-cis	-re	-tis	-rem	-vet	2e,\	-cis	re	-tem	-rem	-vet	2b-\	-cis	mo-	fae-	.	à
2A\	et	.	fae-	.	.	2A\	et	mo-	jam	ex-	à	2f\	et	mo-	jam	ex-	à	2cc\	et	-do	.	-pa-	.
=29	=29	=29	=29	=29	=29	=29	=29	=29	=29	=29	=29	=29	=29	=29	=29	=29	=29	=29	=29	=29	=29	=29	=29
2B-\	se-	-do	-ten-	-pa-	pro-	2d\	se-	-do	fae-	-pa-	pro-	2f\	se-	-do	fae-	-pa-	pro-	4b-\	se-	mi-	-ten-	-ve-	pro-
.	.	.	.	.	.	.	.	.	.	.	.	.	.	.	.	.	.	4a\	.	.	.	.	.
2c\	-re-	mi-	.	-ve-	-cel-	1c	-re-	mi-	-ten-	-ve-	-cel-	(2f\	-re-	mi-	-ten-	-ve-	-cel-	1g	-re-	.	.	.	cel-
2C/	.	.	.	.	.	.	.	.	.	.	.	2e\)	.	.	.	.	.	.	.	.	.	.	.
=30	=30	=30	=30	=30	=30	=30	=30	=30	=30	=30	=30	=30	=30	=30	=30	=30	=30	=30	=30	=30	=30	=30	=30
1.F	-na.	-ro.	-tem.	-sco.	-la.	1.c	-na.	-ro.	-tem.	-sco.	-la.	1.f	-na	-ro.	-tem.	-sco.	-la.	1.a	-na.	-ro.	-tem.	-sco.	-la.
==	==	==	==	==	==	==	==	==	==	==	==	==	==	==	==	==	==	==	==	==	==	==	==
*-	*-	*-	*-	*-	*-	*-	*-	*-	*-	*-	*-	*-	*-	*-	*-	*-	*-	*-	*-	*-	*-	*-	*-
!!!system-decoration: [s1,s2,s3,s4]
!!!RDF**kern: < = below
!!!ENC: Marta Lawrence
!!!END: 2021-03-20
!!!ENC: Kamil Watkowski
!!!END: 2021-03-05
